X:1
T:Joseph, wie heist dein Kindelein
T:Georg Vogler
T:Source: Catechismus---Würzburg---J.Volmari---1652. Editor : André Vierendeels (11/10/17).
T:-natural
T:Notes Original clefs : C1, F4 Original notes values have been halved (quartered in 3-beat measures) Editorial accidentals above the staff Text Middle German 
T:Joseph, wie heist dein Kindelein
T:©
T:©
T:©
C:Georg Vogler
Z:©
%%score [ 1 2 ]
L:1/8
Q:1/4=120
M:3/4
K:F
V:1 treble nm="Soprano" snm="S"
V:2 bass nm="Bass" snm="B"
V:1
 z2 z2 B2 |"^1)" A4 G2 | ^F4 G2 | A4 B2 | A4 G2 | F4 E2 | D4 G2 |"^3)" ^F4 d2 | c4 B2 | A4 G2 | %10
w: Jo-|seph, Jo-|seph, Jo-|seph, wie|heist dein|Kin- de-|lein, Jo-|seph, ge-|wic- kelt|in die|
w: Je-|sus, Je-|sus, Je-|sus, so|heist mein|Kin- de-|lein Je-|sus, mein|Hertz mit|gros- sem|
 A4 B2 | A4 D2 | E4 F2 | G4 B2 | A2 G2 ^F2 | G6 |[M:2/2] A4 B4 | A2 G2 F2 G2 | F2 G2 A4 | A4 B4 | %20
w: Win- de-|lein? Mein|her- zig|lieb- stes|Kin- * de-|lein,|mein hold-|se- li- ges _|Trö- ster- lein,|mein Schät-|
w: Ver- lan-|gen, springt|auff nach|die- sem|Na- * *|men,|der fürth|mein Seel ge- *|fan- * gen,|ich ruff|
 A2 G2 F2 G2 | F2 G2 A4 :: B4 F2 G2 | c2 B2 A2 A2 |[M:2/4] G4 |[M:3/4] z2 z2 d2 | c4 B2 | F4 G2 | %28
w: ze- lein, mein _|Her- ze- lein.|Mein e- del|gül- dens Kin- de-|lein,|heist|Je- sus,|Je- sus|
w: ihn an mit _|In- nig- keit,|und sperz mein|Hertz auff weit und|breit,|er-|fülls mit|Lieb und|
 F4 G2 | A4 D2 | E4 F2 | G4 B2 | A2 G2 ^F2 | G6 :| %34
w: ist sein|Nahm', Heyl-|wer- tig|er vom|Him- mel ka-|me.|
w: Süs- sig-|keit, O|Je- su|mein Lieb,|Je- su mein|Lieb.|
V:2
 z2 z2 G,,2 |"^2)""^1)" D,4 _E,2 | D,4 G,,2 | D,4 G,,2 | D,4 _E,2 | D,4 A,,2 | D,4 G,,2 | %7
w: Jo-|seph, Jo-|seph, Jo-|seph, wie|heist dein|Kin- de-|lein, Jo-|
w: Je-|sus, Je-|sus, Js-|sus, so|heist das|Kind- lein|Je- sus,|
 D,4 B,,2 | F,4 G,2 | D,4 _E,2 | D,4 G,,2 | D,4 B,,2 | C,3 B,, A,,2 | G,,4 G,,2 | D,2 _E,2 D,2 | %15
w: seph, ge-|wic- kelt|in die|Win- de-|lein? Mein|her- * zig|lie- bes|Kin- de- *|
w: die- ser|Nahm ist|ausz- er-|wehlt, er|bringt das|Heyl _ _|_ der|gan- * ze|
 G,,6 |[M:2/2] D,4 G,,2 G,,2 | D,2 _E,2 D,2 G,,2 | D,2 G,,2 D,4 | D,4 G,,2 G,,2 | %20
w: lein,|mein hold- se-|* * li- ges|Trö- ster- lein,|mein Schät- ze-|
w: Welt,|ver- än- dert|un- * ser Traw-|* rig- keit,|mit Fried und|
 D,2 _E,2 D,2 G,,2 | D,2 G,,2 D,4 :: B,,4 D,2 G,,2 | A,,2 B,,2 C,2 D,2 |[M:2/4] G,,4 | %25
w: lein, men Her- *|* ze- lein.|Mein e- del|gül- dens Kin- de-|lein,|
w: Frewd, mit Si- *|* cher- heit,|wer ha- ben|wil sein Her- tze|rein,|
[M:3/4] z2 z2 B,,2 | F,4 G,2 | D,4 _E,2 | D,4 G,,2 | D,4 B,,2 | C,4 A,,2 | G,,4 G,,2 | %32
w: heist|Je- sus,|Je- sus|ist ein|Nahm', Heyl-|wer- tid|er vom|
w: stell|sich bey|sei- nem|Na- men|Je O|Je- su|mein Lieb,|
 D,2 _E,2 D,2 | G,,6 :| %34
w: Him- mel ka-|me.|
w: Je- su mein|Lieb.|

